X:1
T:Title
L:1/8
Q:1/4=120
M:4/4
K:D
V:1 treble nm="Church Organ, Staff"
V:1
 A2 f2- f/ z/ e d2 | B2 A2- A/ z/ B A2 | F2 FE F2 G2 | B2 B4 A2 | A2 f2- f/ z/ e d2 | %5
w: By~J.~Booth * * * *|||||
 B2 A2- A/ z/ B A2 | F^G A2 AB c2 | c2 F6 | F2 F2- F/ z/ F G2 | A2 c2- c/ z/ B A2 | %10
w: |||||
 A2 d2- d/ z/ d d2 | cd e4 A2 | A2 f2- f/ z/ e d2 | F2 G2 F2 G2 | A2 B4 B2 | B2 B2 A2 B2- | %16
w: ||||||
 B2 A4 A2 | A2 A2 G2 A2- | A2 F4 G2 | A2 B2 c2 d2- | d2 d4 c2- | c2 d6 |] %22
w: ||||||

